X:1
T:Title
%%score ( 1 2 ) { 3 | 4 }
L:1/8
Q:1/4=105
M:3/4
K:Ab
V:1 treble nm="Grand Piano, Unnamed-000"
V:2 treble 
V:3 bass nm="Choir Pad, Land�s"
V:4 bass 
V:1
 [CE]2 [CE][DF] [CE]2 | [CA]2 [EG][DF] [DF]2 | [EF]2 [Fd][FB] [EA]2 | [EG]2 [EA]4 | %4
w: By~William~James~Kirkpatrick * * *||||
 [CE]2 [CE][DF] [CE]2 | [CA]2 [EG][DF] [DF]2 | [EF]2 [Fd][FB] [EA]2 | [EG]2 [EA]4 | %8
w: ||||
 E2 [EA][Ac] [Ae]2 | [Ec]2 [Ec][EB] [EB]2 | [Ec]2 [EA][EG] [DF]2 | [FB]2 A2 G2 | %12
w: ||||
 [DE]2 [CE][DF] [CE]2 | [CA]2 [EG][DF] [DF]2 | [EF]2 [Fd][FB] [EA]2 | [EG]2 [EA]4- | [EA]4 z2 |] %17
w: |||||
V:2
 x6 | x6 | x6 | x6 | x6 | x6 | x6 | x6 | x6 | x6 | x6 | z2 E4 | x6 | x6 | x6 | x6 | x6 |] %17
V:3
 A,2 A,A, A,2 | A,2 A,A, A,2 | =A,2 B,[K:treble]D C2 | B,2 C4 | A,2[K:bass] A,A, A,2 | %5
 A,2 A,A, A,2 | =A,2 B,[K:treble]D C2 | B,2 C4 | C2 CE C2 | A,2 A,G, G,2 | A,2 A,A, A,2 | %11
 D2 C2 B,2 | G,2 A,A, A,2 | A,2 A,A, A,2 | =A,2 B,[K:treble]D C2 | D2 C4- | C4 z2 |] %17
V:4
 A,,2 A,,A,, A,,2 | A,,2 D,D, D,2 | C,2 B,,B,, E,2 | E,2 A,4 | A,,2 A,,A,, A,,2 | A,,2 D,D, D,2 | %6
 C,2 B,,B,, E,2 | E,2 A,4 | A,2 A,A, A,2 | z2 E,E, E,2 | z2 C,C, D,2 | D,2 E,4 | E,2 A,,A,, A,,2 | %13
 A,,2 D,D, D,2 | C,2 B,,B,, C,2 | E,2 A,4- | A,4 z2 |] %17

